packages/core/src/svgs/tokens/mono/EJS.svg

<svg width="24" height="24" viewBox="0 0 24 24" fill="none" xmlns="http://www.w3.org/2000/svg">
<path d="M16.5167 7.4776L11.6444 8.81093L12.1167 9.28871L9.24448 12.1609C9.17225 12.2335 9.08644 12.2912 8.99193 12.3306C8.89741 12.37 8.79607 12.3905 8.69366 12.3907C8.59127 12.391 8.48982 12.371 8.39511 12.3322C8.3004 12.2931 8.21429 12.236 8.1417 12.1638C8.06911 12.0914 8.01146 12.0056 7.97203 11.9111C7.93261 11.8166 7.91218 11.7152 7.91192 11.6128C7.91166 11.5104 7.93158 11.4091 7.97052 11.3143C8.00948 11.2197 8.0667 11.1335 8.13893 11.0609L13.6556 5.54426C12.2399 5.18092 10.7441 5.29285 9.3983 5.86283C8.05249 6.43281 6.93128 7.42926 6.2072 8.69883C5.48312 9.96836 5.19632 11.4407 5.3909 12.8893C5.5855 14.3378 6.25071 15.6822 7.28417 16.7157C8.31765 17.7491 9.66213 18.4144 11.1106 18.609C12.5591 18.8035 14.0314 18.5168 15.301 17.7927C16.5706 17.0686 17.5671 15.9474 18.1371 14.6016C18.707 13.2558 18.8189 11.76 18.4556 10.3443L12.9389 15.8609C12.7923 16.0068 12.5938 16.0884 12.3869 16.0879C12.1802 16.0874 11.982 16.0048 11.8361 15.8582C11.6903 15.7116 11.6086 15.513 11.6092 15.3062C11.6097 15.0994 11.6923 14.9013 11.8389 14.7553L14.7112 11.8831L15.2334 12.3998L16.5167 7.4776Z" fill="white"/>
<path d="M6.16732 15.2333L9.24511 12.1611C9.17288 12.2337 9.08706 12.2914 8.99255 12.3308C8.89804 12.3702 8.79669 12.3906 8.69428 12.3909C8.48747 12.3914 8.28893 12.3098 8.14232 12.1639C8.06973 12.0916 8.01208 12.0058 7.97265 11.9113C7.93323 11.8168 7.9128 11.7154 7.91254 11.613C7.91202 11.4062 7.99368 11.2076 8.13955 11.061L5.53955 13.6556C5.68398 14.2 5.88954 14.7333 6.16732 15.2333ZM11.834 14.7611L8.76732 17.8333C9.26733 18.1111 9.80068 18.3167 10.3451 18.4611L13.0396 15.7611L12.9395 15.8611C12.7937 16.0077 12.5955 16.0904 12.3887 16.0909C12.182 16.0914 11.9834 16.0098 11.8368 15.8638C11.6902 15.718 11.6075 15.5199 11.6069 15.313C11.6064 15.1063 11.6881 14.9077 11.834 14.7611Z" fill="white"/>
<path d="M12.1951 14.4L8.76732 17.8333L9.10621 18.0056L11.6285 15.4834C11.5728 15.2333 11.6396 14.9555 11.8395 14.7611L12.1951 14.4ZM5.6562 14.0555L7.93399 11.7889C7.87843 11.5333 7.9451 11.2555 8.13955 11.061L5.53955 13.6556L5.6562 14.0611V14.0555Z" fill="white"/>
<path fill-rule="evenodd" clip-rule="evenodd" d="M12 21.4444C14.5048 21.4444 16.9071 20.4494 18.6782 18.6782C20.4494 16.9071 21.4444 14.5048 21.4444 12C21.4444 9.49514 20.4494 7.09296 18.6782 5.32177C16.9071 3.5506 14.5048 2.55557 12 2.55557C9.49514 2.55557 7.09296 3.5506 5.32177 5.32177C3.5506 7.09296 2.55557 9.49514 2.55557 12C2.55557 14.5048 3.5506 16.9071 5.32177 18.6782C7.09296 20.4494 9.49514 21.4444 12 21.4444ZM12 22C13.3133 22 14.6136 21.7414 15.8269 21.2388C17.0401 20.7362 18.1425 19.9997 19.0711 19.0711C19.9997 18.1425 20.7362 17.0401 21.2388 15.8269C21.7414 14.6136 22 13.3133 22 12C22 10.6868 21.7414 9.38643 21.2388 8.17318C20.7362 6.95992 19.9997 5.85752 19.0711 4.92895C18.1425 4.00036 17.0401 3.26376 15.8269 2.76121C14.6136 2.25866 13.3133 2 12 2C9.34784 2 6.80431 3.05358 4.92895 4.92895C3.05358 6.80431 2 9.34784 2 12C2 14.6522 3.05358 17.1957 4.92895 19.0711C6.80431 20.9465 9.34784 22 12 22Z" fill="white"/>
</svg>

<svg xmlns="http://www.w3.org/2000/svg" width="24" height="24" fill="none" viewBox="0 0 24 24">
    <path fill="#fff" d="M16.517 7.478 11.644 8.81l.473.478-2.873 2.872a.78.78 0 1 1-1.105-1.1l5.517-5.517a6.667 6.667 0 1 0 4.8 4.8l-5.517 5.517a.78.78 0 1 1-1.1-1.106l2.872-2.872.522.517z"/>
    <path fill="#fff" d="m6.167 15.233 3.078-3.072a.78.78 0 1 1-1.105-1.1l-2.6 2.595c.144.544.35 1.077.627 1.577m5.667-.472-3.067 3.072c.5.278 1.034.484 1.578.628l2.695-2.7-.1.1a.78.78 0 1 1-1.106-1.1"/>
    <path fill="#fff" d="m12.195 14.4-3.428 3.433.34.173 2.522-2.523a.77.77 0 0 1 .21-.722zm-6.539-.344 2.278-2.267a.79.79 0 0 1 .206-.728l-2.6 2.595.116.405z"/>
    <path fill="#fff" fill-rule="evenodd" d="M12 21.444a9.444 9.444 0 1 0 0-18.888 9.444 9.444 0 0 0 0 18.888M12 22a10 10 0 1 0 0-19.998A10 10 0 0 0 12 22" clip-rule="evenodd"/>
</svg>
